content/assets/logo/vsco.svg

<svg viewBox="0 0 60 60" xmlns="http://www.w3.org/2000/svg"><path d="m30 7c-12.7 0-23 10.3-23 23s10.3 23 23 23 23-10.3 23-23-10.3-23-23-23zm22.1 23c0 .8 0 1.5-.1 2.3l-3.9-.5c.1-.6.1-1.2.1-1.8s0-1.1-.1-1.7l3.9-.5c.1.8.1 1.5.1 2.2zm-44.2 0c0-.7 0-1.5.1-2.2l3.9.5c-.1.6-.1 1.2-.1 1.7 0 .6 0 1.2.1 1.7l-3.9.5c0-.7-.1-1.5-.1-2.2zm39.3-5.9 3.7-1.4c.5 1.4.8 2.8 1 4.3l-3.9.4c-.2-1.1-.5-2.3-.8-3.3zm.1 5.9c0 1.1-.1 2.3-.3 3.4l-3.9-.9c.3-1.7.3-3.4 0-5l3.9-.9c.2 1.1.3 2.2.3 3.4zm-17.3 12.4c-6.8 0-12.4-5.5-12.4-12.4s5.6-12.4 12.4-12.4 12.4 5.6 12.4 12.4-5.6 12.4-12.4 12.4zm.4 4.8v-4c1.7-.1 3.4-.4 4.9-1.1l1.7 3.6c-2 1-4.3 1.5-6.6 1.5zm-7.5-1.5 1.7-3.6c1.6.7 3.2 1.1 4.9 1.1v4c-2.3 0-4.5-.5-6.6-1.5zm-10.2-15.7c0-1.2.1-2.3.4-3.5l3.9.9c-.3 1.7-.3 3.4 0 5l-3.9.9c-.3-1.1-.4-2.2-.4-3.3zm16.8-17.2v4c-1.7.1-3.3.4-4.9 1.1l-1.7-3.6c2.1-1 4.4-1.5 6.6-1.5zm7.6 1.5-1.7 3.6c-1.5-.7-3.2-1.1-4.9-1.1v-4c2.3 0 4.5.5 6.6 1.5zm9.7 8.9c-.4-1.1-1-2.1-1.6-3.1l3.2-2.2c.8 1.2 1.5 2.5 2 3.9zm-.1 2.5-3.9.9c-.4-1.6-1.2-3.2-2.2-4.5l3.1-2.5c1.4 1.8 2.4 3.9 3 6.1zm-6.6-4.4c-1.1-1.3-2.4-2.3-3.9-3.1l1.7-3.6c2 1 3.8 2.5 5.3 4.2zm-1.2-7.1 1.8-3.5c1.3.7 2.5 1.6 3.6 2.5l-2.6 3c-.8-.8-1.8-1.4-2.8-2zm-.8-.4c-1-.5-2.1-.9-3.2-1.3l1-3.8c1.4.4 2.8.9 4.1 1.6zm-4.1-1.5c-1.2-.3-2.3-.4-3.5-.5v-3.9c1.5 0 3 .2 4.5.6zm-4.4-.5c-1.2 0-2.3.2-3.5.4l-.9-3.8c1.4-.3 2.9-.5 4.4-.5zm-4.3.6c-1.1.3-2.2.7-3.3 1.2l-1.8-3.5c1.3-.7 2.7-1.2 4.1-1.6zm-4.1 1.7c-1 .6-2 1.2-2.9 2l-2.6-2.9c1.1-1 2.4-1.8 3.7-2.5zm.9.5 1.7 3.6c-1.4.8-2.8 1.8-3.9 3.1l-3.1-2.5c1.5-1.7 3.3-3.1 5.3-4.2zm-5.8 4.9 3.1 2.5c-1 1.3-1.8 2.9-2.2 4.5l-3.9-.9c.6-2.2 1.6-4.2 3-6.1zm-3.1 3.6-3.7-1.4c.6-1.4 1.3-2.7 2.1-3.9l3.2 2.2c-.6 1-1.2 2-1.6 3.1zm-.3.8c-.4 1.1-.7 2.2-.8 3.4l-3.9-.5c.2-1.5.6-2.9 1.1-4.3zm-.9 8.7c.2 1.2.5 2.3.8 3.4l-3.7 1.4c-.5-1.4-.9-2.8-1.1-4.3zm1.2 4.3c.4 1.1 1 2.1 1.6 3.1l-3.2 2.2c-.8-1.2-1.5-2.5-2.1-3.9zm0-2.7 3.9-.9c.4 1.6 1.2 3.2 2.2 4.6l-3.1 2.5c-1.4-1.9-2.4-4-3-6.2zm6.6 4.4c1.1 1.3 2.4 2.4 3.9 3.2l-1.7 3.6c-2-1.1-3.8-2.5-5.3-4.3zm1.4 7.3-1.8 3.5c-1.3-.7-2.5-1.6-3.6-2.5l2.6-2.9c.8.7 1.8 1.3 2.8 1.9zm.8.4c1 .5 2.1.9 3.3 1.2l-.9 3.8c-1.4-.4-2.8-.9-4.1-1.6zm4.1 1.4c1.1.2 2.3.4 3.5.4v3.9c-1.5 0-2.9-.2-4.4-.5zm4.4.5c1.2 0 2.3-.2 3.4-.4l.9 3.8c-1.4.3-2.9.5-4.4.5zm4.3-.7c1.1-.3 2.2-.7 3.2-1.2l1.8 3.5c-1.3.7-2.7 1.2-4.1 1.6zm4.1-1.6c1-.6 2-1.2 2.9-2l2.6 2.9c-1.1.9-2.3 1.8-3.6 2.5zm-1-.6-1.7-3.6c1.5-.8 2.8-1.9 3.9-3.2l3.1 2.5c-1.5 1.8-3.3 3.3-5.3 4.3zm5.9-4.9-3.1-2.5c1-1.4 1.7-2.9 2.2-4.5l3.9.9c-.6 2.2-1.6 4.2-3 6.1zm3-3.5 3.7 1.4c-.6 1.4-1.3 2.7-2.1 3.9l-3.2-2.2c.6-1 1.2-2 1.6-3.1zm.3-.8c.4-1.1.7-2.2.8-3.4l3.9.5c-.2 1.5-.6 2.9-1.1 4.3zm.9-18.9-3.2 2.2c-.7-.9-1.5-1.8-2.3-2.6l2.6-2.9c1 1 2 2.1 2.9 3.3zm-32.9-3.5 2.6 2.9c-.8.8-1.6 1.7-2.3 2.6l-3.2-2.2c.8-1.1 1.8-2.3 2.9-3.3zm-3 29.2 3.2-2.2c.7.9 1.5 1.8 2.3 2.6l-2.6 2.9c-1.1-1-2-2.1-2.9-3.3zm32.9 3.3-2.6-2.9c.8-.8 1.6-1.7 2.3-2.6l3.2 2.2c-.9 1.2-1.8 2.3-2.9 3.3z"/></svg>

<?xml version="1.0" encoding="utf-8"?>
<!-- Generator: Adobe Illustrator 22.1.0, SVG Export Plug-In . SVG Version: 6.00 Build 0)  -->
<svg version="1.1" id="Layer_1" xmlns="http://www.w3.org/2000/svg" xmlns:xlink="http://www.w3.org/1999/xlink" x="0px" y="0px"
	 viewBox="0 0 60 60" style="enable-background:new 0 0 60 60;" xml:space="preserve">
<title>VSCO_FaceArtboard 1</title>
<path d="M30,7C17.3,7,7,17.3,7,30s10.3,23,23,23s23-10.3,23-23C53,17.3,42.7,7,30,7z M52.1,30c0,0.8,0,1.5-0.1,2.3l-3.9-0.5
	c0.1-0.6,0.1-1.2,0.1-1.8s0-1.1-0.1-1.7l3.9-0.5C52.1,28.6,52.1,29.3,52.1,30z M7.9,30c0-0.7,0-1.5,0.1-2.2l3.9,0.5
	c-0.1,0.6-0.1,1.2-0.1,1.7c0,0.6,0,1.2,0.1,1.7L8,32.2C8,31.5,7.9,30.7,7.9,30z M47.2,24.1l3.7-1.4c0.5,1.4,0.8,2.8,1,4.3L48,27.4
	C47.8,26.3,47.5,25.1,47.2,24.1z M47.3,30c0,1.1-0.1,2.3-0.3,3.4l-3.9-0.9c0.3-1.7,0.3-3.4,0-5l3.9-0.9C47.2,27.7,47.3,28.8,47.3,30
	z M30,42.4c-6.8,0-12.4-5.5-12.4-12.4S23.2,17.6,30,17.6S42.4,23.2,42.4,30C42.4,36.8,36.8,42.4,30,42.4z M30.4,47.2v-4
	c1.7-0.1,3.4-0.4,4.9-1.1l1.7,3.6C35,46.7,32.7,47.2,30.4,47.2L30.4,47.2z M22.9,45.7l1.7-3.6c1.6,0.7,3.2,1.1,4.9,1.1v4
	C27.2,47.2,25,46.7,22.9,45.7z M12.7,30c0-1.2,0.1-2.3,0.4-3.5l3.9,0.9c-0.3,1.7-0.3,3.4,0,5l-3.9,0.9C12.8,32.2,12.7,31.1,12.7,30z
	 M29.5,12.8v4c-1.7,0.1-3.3,0.4-4.9,1.1l-1.7-3.6C25,13.3,27.3,12.8,29.5,12.8z M37.1,14.3l-1.7,3.6c-1.5-0.7-3.2-1.1-4.9-1.1v-4
	C32.8,12.8,35,13.3,37.1,14.3z M46.8,23.2c-0.4-1.1-1-2.1-1.6-3.1l3.2-2.2c0.8,1.2,1.5,2.5,2,3.9L46.8,23.2z M46.7,25.7l-3.9,0.9
	c-0.4-1.6-1.2-3.2-2.2-4.5l3.1-2.5C45.1,21.4,46.1,23.5,46.7,25.7L46.7,25.7z M40.1,21.3c-1.1-1.3-2.4-2.3-3.9-3.1l1.7-3.6
	c2,1,3.8,2.5,5.3,4.2L40.1,21.3z M38.9,14.2l1.8-3.5c1.3,0.7,2.5,1.6,3.6,2.5l-2.6,3C40.9,15.4,39.9,14.8,38.9,14.2z M38.1,13.8
	c-1-0.5-2.1-0.9-3.2-1.3l1-3.8c1.4,0.4,2.8,0.9,4.1,1.6L38.1,13.8z M34,12.3c-1.2-0.3-2.3-0.4-3.5-0.5V7.9c1.5,0,3,0.2,4.5,0.6
	L34,12.3z M29.6,11.8c-1.2,0-2.3,0.2-3.5,0.4l-0.9-3.8c1.4-0.3,2.9-0.5,4.4-0.5L29.6,11.8z M25.3,12.4c-1.1,0.3-2.2,0.7-3.3,1.2
	l-1.8-3.5c1.3-0.7,2.7-1.2,4.1-1.6L25.3,12.4z M21.2,14.1c-1,0.6-2,1.2-2.9,2l-2.6-2.9c1.1-1,2.4-1.8,3.7-2.5L21.2,14.1z M22.1,14.6
	l1.7,3.6C22.4,19,21,20,19.9,21.3l-3.1-2.5C18.3,17.1,20.1,15.7,22.1,14.6L22.1,14.6z M16.3,19.5l3.1,2.5c-1,1.3-1.8,2.9-2.2,4.5
	l-3.9-0.9C13.9,23.4,14.9,21.4,16.3,19.5z M13.2,23.1l-3.7-1.4c0.6-1.4,1.3-2.7,2.1-3.9l3.2,2.2C14.2,21,13.6,22,13.2,23.1z
	 M12.9,23.9c-0.4,1.1-0.7,2.2-0.8,3.4l-3.9-0.5c0.2-1.5,0.6-2.9,1.1-4.3L12.9,23.9z M12,32.6c0.2,1.2,0.5,2.3,0.8,3.4l-3.7,1.4
	c-0.5-1.4-0.9-2.8-1.1-4.3L12,32.6z M13.2,36.9c0.4,1.1,1,2.1,1.6,3.1l-3.2,2.2c-0.8-1.2-1.5-2.5-2.1-3.9L13.2,36.9z M13.2,34.2
	l3.9-0.9c0.4,1.6,1.2,3.2,2.2,4.6l-3.1,2.5C14.8,38.5,13.8,36.4,13.2,34.2L13.2,34.2z M19.8,38.6c1.1,1.3,2.4,2.4,3.9,3.2l-1.7,3.6
	c-2-1.1-3.8-2.5-5.3-4.3L19.8,38.6z M21.2,45.9l-1.8,3.5c-1.3-0.7-2.5-1.6-3.6-2.5l2.6-2.9C19.2,44.7,20.2,45.3,21.2,45.9L21.2,45.9
	z M22,46.3c1,0.5,2.1,0.9,3.3,1.2l-0.9,3.8c-1.4-0.4-2.8-0.9-4.1-1.6L22,46.3z M26.1,47.7c1.1,0.2,2.3,0.4,3.5,0.4v3.9
	c-1.5,0-2.9-0.2-4.4-0.5L26.1,47.7z M30.5,48.2c1.2,0,2.3-0.2,3.4-0.4l0.9,3.8c-1.4,0.3-2.9,0.5-4.4,0.5L30.5,48.2z M34.8,47.5
	c1.1-0.3,2.2-0.7,3.2-1.2l1.8,3.5c-1.3,0.7-2.7,1.2-4.1,1.6L34.8,47.5z M38.9,45.9c1-0.6,2-1.2,2.9-2l2.6,2.9
	c-1.1,0.9-2.3,1.8-3.6,2.5L38.9,45.9z M37.9,45.3l-1.7-3.6c1.5-0.8,2.8-1.9,3.9-3.2l3.1,2.5C41.7,42.8,39.9,44.3,37.9,45.3
	L37.9,45.3z M43.8,40.4l-3.1-2.5c1-1.4,1.7-2.9,2.2-4.5l3.9,0.9C46.2,36.5,45.2,38.5,43.8,40.4z M46.8,36.9l3.7,1.4
	c-0.6,1.4-1.3,2.7-2.1,3.9l-3.2-2.2C45.8,39,46.4,38,46.8,36.9z M47.1,36.1c0.4-1.1,0.7-2.2,0.8-3.4l3.9,0.5
	c-0.2,1.5-0.6,2.9-1.1,4.3L47.1,36.1z M48,17.2l-3.2,2.2c-0.7-0.9-1.5-1.8-2.3-2.6l2.6-2.9C46.1,14.9,47.1,16,48,17.2L48,17.2z
	 M15.1,13.7l2.6,2.9c-0.8,0.8-1.6,1.7-2.3,2.6l-3.2-2.2C13,15.9,14,14.7,15.1,13.7z M12.1,42.9l3.2-2.2c0.7,0.9,1.5,1.8,2.3,2.6
	L15,46.2C13.9,45.2,13,44.1,12.1,42.9z M45,46.2l-2.6-2.9c0.8-0.8,1.6-1.7,2.3-2.6l3.2,2.2C47,44.1,46.1,45.2,45,46.2L45,46.2z"/>
</svg>
